svg/water_treatment_negative.svg

<svg width="48" height="48" viewBox="0 0 48 48" fill="none" xmlns="http://www.w3.org/2000/svg">
<path fill-rule="evenodd" clip-rule="evenodd" d="M0.132808 0.000189998C0.0593613 0.000189998 0 0.0595513 0 0.132998V47.8664C0 47.9404 0.0593613 47.9994 0.132808 47.9994H47.8662C47.9402 47.9994 47.9992 47.9404 47.9992 47.8664V0.132998C47.9992 0.0593613 47.9402 0 47.8662 0H0.132808V0.000189998ZM23.6015 6.30281C27.2528 6.3075 30.8132 7.44142 33.7948 9.54911C36.7763 11.6568 39.0329 14.6351 40.2553 18.0757L36.9273 19.0467C35.9172 16.3262 34.0993 13.9797 31.7173 12.3221C29.3354 10.6645 26.5035 9.7751 23.6015 9.77317C20.0139 9.77665 16.56 11.1357 13.932 13.5779C11.3039 16.0201 9.69577 19.3652 9.42969 22.943L11.4117 22.771L8.4216 29.7519L3.99976 23.414L5.93134 23.248C6.12541 18.6908 8.0715 14.3845 11.3637 11.2275C14.6558 8.07038 19.0398 6.3063 23.6011 6.30321L23.6015 6.30281ZM23.5115 11.1001V11.1041C23.8555 11.181 26.7365 15.081 26.7355 17.293C26.7365 19.5759 25.2915 21.4279 23.5095 21.4279C21.7285 21.4269 20.2866 19.5749 20.2866 17.293C20.2866 15.011 23.4855 11.1071 23.4855 11.1071C23.4915 11.0981 23.5005 11.0971 23.5115 11.1001ZM25.0345 14.594C26.0955 19.2409 23.2155 19.2949 22.9975 20.0919C22.9335 20.4539 23.1805 20.6599 23.3785 20.8199C25.0555 21.6789 27.8105 16.831 25.0345 14.594ZM38.9793 18.701L43.0223 25.1519L41.2473 25.3219C40.9136 29.7737 38.9097 33.9349 35.6373 36.9716C32.3649 40.0083 28.0658 41.696 23.6015 41.6967C20.0409 41.6929 16.5643 40.6152 13.6258 38.6044C10.6874 36.5937 8.42374 33.7433 7.13072 30.4258L10.4767 29.4488C11.553 32.0444 13.374 34.263 15.7098 35.8248C18.0456 37.3867 20.7916 38.2218 23.6015 38.2247C27.0842 38.2222 30.445 36.9421 33.0469 34.627C35.6488 32.3119 37.3109 29.1227 37.7183 25.6639L36.2454 25.8069L38.9793 18.701ZM17.1876 23.8319C17.2076 23.8319 17.2296 23.8489 17.2316 23.8829C17.2826 25.0139 18.2126 25.9059 19.3456 25.9059C20.4776 25.9049 21.4085 25.0139 21.4585 23.8829C21.4615 23.8509 21.4835 23.8319 21.5035 23.8319C21.5235 23.8319 21.5405 23.8479 21.5445 23.8829C21.5945 25.0139 22.5265 25.9059 23.6595 25.9059C24.7915 25.9049 25.7225 25.0139 25.7725 23.8829C25.7875 23.8139 25.8475 23.8139 25.8585 23.8829C25.9095 25.0139 26.8415 25.9059 27.9745 25.9059C29.1064 25.9049 30.0374 25.0139 30.0874 23.8829C30.1044 23.8139 30.1564 23.8139 30.1734 23.8829C30.2234 25.0139 31.1554 25.9059 32.2884 25.9059C33.4204 25.9049 34.3514 25.0139 34.4014 23.8829H34.4054C34.3914 25.5309 33.9984 27.1549 33.2574 28.6268C30.1914 29.6928 26.9525 29.8048 23.5505 29.0118C20.4866 28.3368 17.4556 28.4458 14.4156 29.2618C13.4486 27.6328 12.9286 25.7769 12.9096 23.8829H12.9176C12.9676 25.0139 13.9006 25.9059 15.0326 25.9059C16.1646 25.9049 17.0956 25.0139 17.1456 23.8829C17.1466 23.8489 17.1666 23.8319 17.1876 23.8319ZM19.3606 30.0738C19.5396 30.0708 19.7186 30.0718 19.8976 30.0738V30.0758C21.1525 30.0928 22.4145 30.2498 23.6855 30.5718C26.4645 31.1748 29.2364 31.2368 31.9994 30.5638C29.9604 33.0798 26.8975 34.5418 23.6595 34.5448C20.4406 34.5398 17.3916 33.0948 15.3536 30.6038C16.6796 30.2878 18.0156 30.1008 19.3606 30.0738Z" fill="#333333"/>
</svg>

<?xml version="1.0" encoding="UTF-8" standalone="no"?>
<!-- Created with Inkscape (http://www.inkscape.org/) -->
<svg id="svg8" xmlns:rdf="http://www.w3.org/1999/02/22-rdf-syntax-ns#" xmlns="http://www.w3.org/2000/svg" xmlns:osb="http://www.openswatchbook.org/uri/2009/osb" height="48" width="48" version="1.1" xmlns:cc="http://creativecommons.org/ns#" viewBox="0 0 12.7 12.7" xmlns:dc="http://purl.org/dc/elements/1.1/">
 <title id="title4753">UIO-icon</title>
 <metadata id="metadata5">
  <rdf:RDF>
   <cc:Work rdf:about="">
    <dc:format>image/svg+xml</dc:format>
    <dc:type rdf:resource="http://purl.org/dc/dcmitype/StillImage"/>
    <dc:title>UIO-icon</dc:title>
    <dc:creator>
     <cc:Agent>
      <dc:title>Joaquín Urbano</dc:title>
     </cc:Agent>
    </dc:creator>
    <dc:rights>
     <cc:Agent>
      <dc:title>GPL</dc:title>
     </cc:Agent>
    </dc:rights>
   </cc:Work>
  </rdf:RDF>
 </metadata>
 <g id="layer1" fill="#333" transform="translate(0,-284.3)">
  <path id="rect2976" d="m0.13281 0c-0.073448 0-0.13281 0.059362-0.13281 0.13281v47.734c-1.8504e-17 0.074 0.059362 0.133 0.13281 0.133h47.734c0.074 0 0.133-0.059 0.133-0.133v-47.734c0-0.073638-0.059-0.133-0.133-0.133h-47.734zm23.469 6.3027a17.698 17.698 0 0 1 16.654 11.773l-3.328 0.971a14.225 14.225 0 0 0 -13.326 -9.2736 14.225 14.225 0 0 0 -14.172 13.17l1.982-0.172-2.9901 6.981-4.4219-6.338 1.9316-0.166a17.698 17.698 0 0 1 17.67 -16.945zm-0.09 4.7973v0.004c0.344 0.077 3.225 3.977 3.224 6.189 0.001 2.283-1.444 4.135-3.226 4.135-1.781-0.001-3.223-1.853-3.223-4.135s3.199-6.186 3.199-6.186c0.006-0.009 0.015-0.01 0.026-0.007zm1.523 3.494c1.061 4.647-1.819 4.701-2.037 5.498-0.064 0.362 0.183 0.568 0.381 0.728 1.677 0.859 4.432-3.989 1.656-6.226zm13.945 4.107l4.043 6.451-1.775 0.17a17.698 17.698 0 0 1 -17.646 16.375 17.698 17.698 0 0 1 -16.471 -11.271l3.346-0.977a14.225 14.225 0 0 0 13.125 8.776 14.225 14.225 0 0 0 14.117 -12.561l-1.473 0.143 2.734-7.106zm-21.792 5.131c0.02 0 0.042 0.017 0.044 0.051 0.051 1.131 0.981 2.023 2.114 2.023 1.132-0.001 2.063-0.892 2.113-2.023 0.003-0.032 0.025-0.051 0.045-0.051s0.037 0.016 0.041 0.051c0.05 1.131 0.982 2.023 2.115 2.023 1.132-0.001 2.063-0.892 2.113-2.023 0.015-0.069 0.075-0.069 0.086 0 0.051 1.131 0.983 2.023 2.116 2.023 1.132-0.001 2.063-0.892 2.113-2.023 0.017-0.069 0.069-0.069 0.086 0 0.05 1.131 0.982 2.023 2.115 2.023 1.132-0.001 2.063-0.892 2.113-2.023h0.004c-0.014 1.648-0.407 3.272-1.148 4.744-3.066 1.066-6.305 1.178-9.707 0.385-3.064-0.675-6.095-0.566-9.135 0.25-0.967-1.629-1.487-3.485-1.506-5.379h0.008c0.05 1.131 0.983 2.023 2.115 2.023 1.132-0.001 2.063-0.892 2.113-2.023 0.001-0.034 0.021-0.051 0.042-0.051zm2.173 6.242c0.179-0.003 0.358-0.002 0.537 0v0.002c1.255 0.017 2.517 0.174 3.788 0.496 2.779 0.603 5.551 0.665 8.314-0.008-2.039 2.516-5.102 3.978-8.34 3.981-3.219-0.005-6.268-1.45-8.306-3.941 1.326-0.316 2.662-0.503 4.007-0.53z" fill-rule="evenodd" transform="matrix(.26458 0 0 .26458 0 284.3)"/>
 </g>
</svg>
